X:1
T: The Pretty Girl
T: 2nd setting
R:Jig
Q:180
K:D
M:6/8
L:1/16
|:B2|A4F2 A2B2d2|e4d2 B4dB|A2B2A2 G2F2G2|A6 A2B2d2|
e2g2e2 d2B2d2|e4d2 B4e2|f4a2 e4f2|d6d4:|
|:e2|f4d2 d4d2|e4d2 B4e2|f4d2 a4f2|a6 a4e2|
f4d2 d4d2|e4d2 B4e2|f4a2 e4f2|d6d4:|
